X: 22632
T: Laington's
R: reel
M: 4/4
K: Amajor
cB|AF~F2 A2ce|fece fgaf|ec~c2 ac~c2|ec~c2 ~B3c|
AFEF A2ce|fece fgaf|ec~c2 acec|~B3c A2:|
ed|ceAe ceAc|BE~E2 BcdB|cA~A2 cAec|BE~E2 BcdB|
Ac~c2 cedc|B2BA BdcB|ABce faaf|ec~c2 d2||

